X: 19843
T: Jersey Lightning
R: reel
M: 4/4
K: Bminor
|:Bcde fb2f|gfeg fb2f|gfeg fedf|edcd cB A2|
Bcde fb2f|gfeg fb2f|gfeg fedf|1 edcd B2F2:|2 edcd B2fg||
K: Dmaj
|:a^gba fdd2|a^gba fdd2|ABcd efga|fdec defg|
a^gba fdd2|a^gba fdd2|ABcd efga|1 fdec d2fg:|2 fdec d2c2||

